assets/Man fairy/Default/Flat/man_fairy_flat_default.svg

<svg width="32" height="32" viewBox="0 0 32 32" fill="none" xmlns="http://www.w3.org/2000/svg">
<path d="M21.4406 4.93075C20.3878 4.75787 19.2701 5.0777 18.4575 5.89025L15.7942 8.54569L13.1688 5.92028C11.8288 4.58028 9.65878 4.58028 8.31878 5.92028C6.97878 7.26028 6.97878 9.43028 8.31878 10.7703L11.6888 14.1403C11.6997 14.1512 11.7107 14.1621 11.7218 14.1729L11.4219 14.4728C10.5687 15.3259 10.5687 16.72 11.4219 17.5731C12.275 18.4262 13.6691 18.4262 14.5222 17.5731L15.91 16.1853L17.285 17.5603C18.1552 18.4305 19.5771 18.4305 20.4472 17.5603C21.3173 16.6902 21.3173 15.2683 20.4472 14.3982L20.0434 13.9944L23.2975 10.7403C24.6475 9.40025 24.6475 7.23025 23.3075 5.89025C23.261 5.84376 23.2135 5.79887 23.1651 5.7556L22.6279 5.48062C22.5821 5.45773 22.5249 5.45773 22.4677 5.48062L21.5181 5.98404C21.4037 6.04124 21.2664 5.93827 21.2893 5.80098L21.4406 4.93075Z" fill="#75E0FC"/>
<path d="M11.1588 6.24988C11.1469 6.15396 11.0595 6.08587 10.9636 6.09779C10.8677 6.10971 10.7996 6.19712 10.8115 6.29303L11.0009 7.81737L9.90123 6.81881C9.82968 6.75384 9.71901 6.75917 9.65403 6.83073C9.58906 6.90228 9.59439 7.01295 9.66595 7.07793L13.8822 10.9065C14.0212 10.8737 14.1616 10.8504 14.3034 10.8342C14.2939 10.8139 14.2803 10.7952 14.2628 10.7793L11.3985 8.17836L11.1588 6.24988ZM17.7966 10.8932C17.6738 10.8651 17.5531 10.8447 17.4318 10.8302C17.4313 10.7816 17.4509 10.733 17.49 10.698L20.2211 8.2508L20.4826 6.30409C20.4954 6.2083 20.5835 6.14108 20.6793 6.15395C20.7751 6.16682 20.8423 6.2549 20.8295 6.35069L20.6225 7.89105L21.82 6.81805C21.892 6.75355 22.0026 6.75961 22.0671 6.83159C22.1316 6.90357 22.1255 7.01421 22.0536 7.07871L17.7966 10.8932ZM19.7415 11.6516L19.3804 11.503L21.466 9.67124C21.4919 9.71574 21.5228 9.75756 21.5581 9.79582C21.6035 9.84513 21.6406 9.89992 21.6694 9.95841L20.2274 11.2249L21.246 11.307C21.3423 11.3148 21.4141 11.3992 21.4063 11.4955C21.3986 11.5919 21.3142 11.6637 21.2178 11.6559L19.9778 11.5559C19.9443 11.5532 19.9137 11.5412 19.8884 11.5226L19.7415 11.6516ZM12.6103 11.7714C12.5553 11.8326 12.499 11.8959 12.4415 11.9607C12.4203 11.9845 12.399 12.0086 12.3775 12.0327L11.8464 11.5503L11.844 11.5505L10.594 11.6505C10.4976 11.6582 10.4133 11.5864 10.4056 11.49C10.3979 11.3937 10.4697 11.3093 10.5661 11.3016L11.4912 11.2276L9.6144 9.52265C9.54286 9.45766 9.53755 9.34698 9.60254 9.27544C9.66753 9.20391 9.7782 9.1986 9.84974 9.26358L12.6103 11.7714Z" fill="white"/>
<path d="M22.8191 9.01178C22.8191 8.82844 22.9677 8.67999 23.151 8.67999C23.3448 8.67999 23.4973 8.84519 23.482 9.03831L23.3988 10.0824C23.3772 10.7298 23.3291 12.4567 23.2972 13.6192C23.2799 14.2506 22.7631 14.7526 22.1315 14.7526C21.9787 14.7526 21.8275 14.7225 21.6863 14.6642L18.7844 13.4652C18.7285 13.4421 18.667 13.4832 18.667 13.5437V13.886C18.667 15.2933 18.667 15.9969 18.7649 16.6914C18.8628 17.3858 19.0573 18.0621 19.4463 19.4145L20.0056 21.3591C20.123 21.7672 20.0619 22.2061 19.8374 22.5666L16.6986 27.6073C16.5928 27.7772 16.3404 27.7602 16.2583 27.5778L15.6198 26.1583C15.5838 26.0782 15.5843 25.9873 15.6216 25.9079C15.8832 25.3513 16.957 23.0557 17.5126 21.7101C17.5623 21.5897 17.5614 21.4554 17.512 21.3348L16.3066 18.3943C16.2065 18.1503 15.8457 18.2074 15.826 18.4705L15.037 29.0067C15.0289 29.1137 14.9644 29.2082 14.8678 29.2547L13.5461 29.89C13.3801 29.9697 13.1878 29.8488 13.1878 29.6646L13.1749 14.395C13.1747 14.2607 13.1747 14.1935 13.1397 14.1697C13.1307 14.1636 13.1205 14.1593 13.1097 14.1573C13.0682 14.1494 13.0206 14.1968 12.9255 14.2917V14.2917C12.9255 14.2917 12.2364 14.9617 11.2692 15.4517C10.3796 15.9023 9.50009 15.8962 8.9367 15.8923C8.88745 15.892 8.84063 15.8917 8.79642 15.8917C8.24642 15.8917 7.54956 15.6957 7.54956 15.6957C7.54956 15.6957 7.24878 16.0395 6.7556 15.8817C6.60469 16.0654 6.35803 16.274 6.09642 16.0902C5.62376 15.7582 6.00718 15.0563 6.23329 14.7987C6.5763 14.3901 7.20661 13.9717 7.76824 13.9717C7.97379 13.9612 8.17534 13.9602 8.37709 13.9591C8.94442 13.9562 9.51334 13.9533 10.1773 13.7408C11.1318 13.4352 11.8545 12.6216 12.4415 11.9607C12.8216 11.5328 13.1447 11.169 13.437 11.0486C13.947 10.8386 14.4732 10.7994 15.0232 10.7994H16.8432C17.4632 10.7994 17.9751 10.8732 18.667 11.2095L21.377 12.3246C21.4269 12.0744 21.6254 11.011 21.7315 10.4412C21.7747 10.2097 21.7175 9.96901 21.5581 9.79582V9.79582C21.4457 9.67383 21.3771 9.51568 21.3771 9.34986L21.3772 8.55604C21.3772 8.32161 21.5687 8.13234 21.8031 8.13504C22.0441 8.13781 22.2376 8.34196 22.2366 8.58296C22.2353 8.87021 22.2388 9.12171 22.2419 9.35727C22.244 9.51485 22.3725 9.64074 22.5301 9.64074C22.6897 9.64074 22.8191 9.51148 22.8191 9.35186V9.01178Z" fill="#F59F00"/>
<path d="M15.1127 27.9953L15.037 29.0066C15.0289 29.1136 14.9644 29.2081 14.8678 29.2546L13.5461 29.8899C13.3801 29.9696 13.1878 29.8487 13.1878 29.6645L13.1865 28.1826L15.1127 27.9953ZM17.3156 26.6164L16.6986 27.6072C16.5928 27.7771 16.3404 27.7601 16.2584 27.5777L15.6198 26.1582C15.5838 26.0781 15.5843 25.9872 15.6216 25.9078C15.715 25.7091 15.9118 25.2888 16.1517 24.7693L17.3156 26.6164Z" fill="#635994"/>
<path d="M16.905 10.0004C16.905 10.055 16.905 12.9866 16.905 12.9866L14.905 13.0002V10.0002L16.905 10.0004Z" fill="#FCB100"/>
<path d="M14.386 4.61961L14.108 4.89696C14.0068 4.99783 13.8862 5.07697 13.7533 5.12952C13.2323 5.33567 12.9655 5.91524 13.1478 6.44513L13.2955 6.87438C13.3242 6.95783 13.3406 7.04502 13.3441 7.1332C13.3637 7.61978 13.7638 8.00419 14.2508 8.00419H17.6335C18.0827 8.00419 18.4468 7.64004 18.4468 7.19084C18.4468 7.06546 18.4758 6.94178 18.5315 6.82946L18.6308 6.62926C18.9279 6.03025 18.6294 5.30666 17.9964 5.09132C17.8207 5.03155 17.6629 4.92852 17.5375 4.79171L17.4077 4.65017C17.0963 4.31048 16.6282 4.16125 16.1777 4.25803C15.998 4.29665 15.8121 4.29665 15.6323 4.25806L15.6218 4.25579C15.1748 4.15982 14.7097 4.29676 14.386 4.61961Z" fill="#F1A11E"/>
<path d="M14.4369 8.00005C14.4369 8.38665 14.1235 8.70005 13.7369 8.70005C13.3503 8.70005 13.0369 8.38665 13.0369 8.00005C13.0369 7.61345 13.3503 7.30005 13.7369 7.30005C14.1235 7.30005 14.4369 7.61345 14.4369 8.00005ZM18.7271 8.00005C18.7271 8.38665 18.4137 8.70005 18.0271 8.70005C17.6405 8.70005 17.3271 8.38665 17.3271 8.00005C17.3271 7.61345 17.6405 7.30005 18.0271 7.30005C18.4137 7.30005 18.7271 7.61345 18.7271 8.00005Z" fill="#FCB100"/>
<path d="M14.4369 8.00005C14.4369 8.38665 14.1235 8.70005 13.7369 8.70005C13.3503 8.70005 13.0369 8.38665 13.0369 8.00005C13.0369 7.61345 13.3503 7.30005 13.7369 7.30005C14.1235 7.30005 14.4369 7.61345 14.4369 8.00005ZM18.7271 8.00005C18.7271 8.38665 18.4137 8.70005 18.0271 8.70005C17.6405 8.70005 17.3271 8.38665 17.3271 8.00005C17.3271 7.61345 17.6405 7.30005 18.0271 7.30005C18.4137 7.30005 18.7271 7.61345 18.7271 8.00005Z" fill="#FCB100"/>
<path d="M18.1756 7.00515C17.9647 6.775 17.8374 6.4804 17.8145 6.16887L17.7952 5.90775C17.791 5.8498 17.751 5.8007 17.6951 5.78482C16.6311 5.48256 15.5103 5.43981 14.4264 5.66016L14.1821 5.70981C14.1124 5.72399 14.0606 5.78283 14.0554 5.8538L14.041 6.04837C14.0158 6.39136 13.8801 6.71693 13.6543 6.97633L13.6349 7.32058H13.6338L13.7725 9.35112C13.8872 10.1816 14.6169 10.7993 15.482 10.7993H16.3159C17.1811 10.7993 17.9107 10.1816 18.0254 9.35112L18.1756 7.00515Z" fill="#FFC83D"/>
<path d="M22.8995 5.3335H22.2077V9.36373C22.2077 9.53084 22.3665 9.66846 22.5593 9.66846C22.752 9.66846 22.9108 9.53084 22.9108 9.36373V5.3335H22.8995Z" fill="#75443E"/>
<path d="M22.708 2.36881L23.1771 3.32988C23.2 3.37565 23.2457 3.40997 23.3029 3.42141L24.367 3.57015C24.5043 3.59303 24.5615 3.75321 24.4585 3.85618L23.692 4.59987C23.6576 4.6342 23.6348 4.69141 23.6462 4.74861L23.8293 5.80122C23.8521 5.93852 23.7148 6.04149 23.589 5.97284L22.6279 5.48086C22.5821 5.45798 22.5249 5.45798 22.4677 5.48086L21.5181 5.98428C21.4037 6.04149 21.2664 5.93852 21.2893 5.80122L21.4723 4.74861C21.4838 4.69141 21.4609 4.6342 21.4266 4.59987L20.66 3.85618C20.557 3.76465 20.6142 3.59303 20.7515 3.57015L21.8041 3.42141C21.8613 3.40997 21.9071 3.37565 21.93 3.32988L22.3991 2.36881C22.4677 2.24295 22.6394 2.24295 22.708 2.36881Z" fill="#FCD53F"/>
<path d="M13.1813 22.0078L13.1763 16.0103H18.6985C18.713 16.2527 18.7341 16.4725 18.765 16.6914C18.8629 17.3858 19.0574 18.062 19.4464 19.4145L19.4464 19.4145L19.7794 20.5724L17.4154 21.0991L16.3066 18.3943C16.2066 18.1503 15.8457 18.2074 15.826 18.4705L15.5611 22.0078H13.1813Z" fill="#46A4FB"/>
<path d="M16.9038 10.7996C17.4384 10.804 17.898 10.8692 18.4736 11.1202C18.5822 11.2783 18.6466 11.4692 18.6487 11.6753L18.6682 13.5296C18.6674 13.5341 18.667 13.5388 18.667 13.5437V13.886C18.667 14.7923 18.667 15.4068 18.6932 15.9149L18.6941 16.0002H13.1762L13.1749 14.3949C13.1748 14.2864 13.1747 14.2217 13.1562 14.1883V11.735C13.1562 11.472 13.2578 11.2327 13.4237 11.0542C13.4282 11.0523 13.4326 11.0504 13.437 11.0486C13.9101 10.8538 14.3971 10.8059 14.9041 10.8L15.5507 12.0273C15.7008 12.3122 16.1089 12.312 16.2587 12.027L16.9038 10.7996Z" fill="#46A4FB"/>
<path d="M13.1765 16.4084L13.1758 15.5742H18.6798C18.6888 15.8868 18.7042 16.1542 18.7304 16.4084H13.1765Z" fill="#C3EF3C"/>
<path d="M17.5858 6.73655C17.5858 6.73655 17.585 6.73588 17.5844 6.73546C17.5837 6.73485 17.5825 6.73391 17.5825 6.73391L17.5773 6.72983C17.5733 6.72671 17.5682 6.72278 17.5619 6.71817C17.5493 6.70897 17.5321 6.69702 17.5107 6.68344C17.468 6.65635 17.4074 6.62221 17.3313 6.59031C17.179 6.52653 16.9602 6.47005 16.6977 6.5013C16.5606 6.51762 16.4627 6.642 16.479 6.7791C16.4954 6.91621 16.6197 7.01412 16.7568 6.9978C16.9143 6.97905 17.0454 7.01266 17.1381 7.05148C17.1844 7.07088 17.22 7.09117 17.2429 7.10568C17.2543 7.11289 17.2623 7.11854 17.2667 7.12173L17.2703 7.12443C17.3769 7.21033 17.533 7.19454 17.6202 7.08857C17.7079 6.98194 17.6924 6.82426 17.5858 6.73655ZM14.5708 7.10046L14.5746 7.0963L14.5732 7.0979L14.5718 7.09942L14.5708 7.10046ZM14.5694 7.10193C14.5694 7.10193 14.5743 7.09761 14.5799 7.09337C14.5931 7.08336 14.6184 7.06641 14.6575 7.04942C14.7338 7.01623 14.8726 6.97841 15.0921 7.00294C15.2293 7.01828 15.353 6.91948 15.3684 6.78226C15.3837 6.64504 15.2849 6.52137 15.1477 6.50604C14.8438 6.47207 14.6167 6.52187 14.458 6.59094C14.3796 6.62507 14.3201 6.66291 14.2779 6.6949C14.2568 6.71087 14.2401 6.72536 14.2275 6.73716C14.2211 6.74306 14.2158 6.7483 14.2115 6.75272L14.2058 6.75874L14.2035 6.76126L14.2025 6.76239L14.2018 6.76318C14.1099 6.86627 14.1188 7.02455 14.2219 7.1164C14.323 7.20648 14.4769 7.19946 14.5694 7.10193Z" fill="#D37034"/>
<path d="M14.2931 7.86016C14.3631 7.60016 14.5931 7.41016 14.8731 7.41016C15.1631 7.41016 15.4031 7.61016 15.4631 7.88016C15.4731 7.94016 15.4231 8.00016 15.3631 8.00016H14.4131C14.3431 8.00016 14.2831 7.93016 14.2931 7.86016ZM17.4982 7.86016C17.4282 7.60016 17.1982 7.41016 16.9182 7.41016C16.6282 7.41016 16.3882 7.61016 16.3382 7.88016C16.3282 7.94016 16.3782 8.00016 16.4382 8.00016H17.3882C17.4582 8.00016 17.5182 7.93016 17.4982 7.86016Z" fill="white"/>
<path d="M14.5833 7.90026C14.5833 7.69026 14.7533 7.52026 14.9633 7.52026C15.1733 7.52026 15.3433 7.69026 15.3333 7.90026V7.90027C15.3333 7.93027 15.3333 7.97027 15.3233 8.00026H14.5933C14.5933 7.98526 14.5908 7.96776 14.5883 7.95026C14.5858 7.93276 14.5833 7.91526 14.5833 7.90026ZM17.2084 7.90026C17.2084 7.69026 17.0384 7.52026 16.8284 7.52026C16.6184 7.52026 16.4484 7.69026 16.4584 7.90026C16.4584 7.93026 16.4584 7.97026 16.4684 8.00026H17.1984C17.1984 7.98526 17.2009 7.96776 17.2034 7.95026C17.2059 7.93276 17.2084 7.91526 17.2084 7.90026Z" fill="#7D4533"/>
<path d="M14.9632 7.68018C15.0832 7.68018 15.1832 7.78018 15.1832 7.90018C15.1832 7.94018 15.1732 7.97018 15.1432 8.00018H14.7632L14.7632 8.00017C14.7532 7.97017 14.7432 7.94017 14.7432 7.90018C14.7432 7.78018 14.8432 7.68018 14.9632 7.68018ZM16.8384 7.68018C16.7184 7.68018 16.6184 7.78018 16.6184 7.90018C16.6184 7.94018 16.6284 7.97018 16.6584 8.00018H17.0384C17.0484 7.97018 17.0584 7.94018 17.0584 7.90018C17.0584 7.78018 16.9584 7.68018 16.8384 7.68018Z" fill="black"/>
<path d="M14.9032 7.75018C14.9032 7.78884 14.8718 7.82018 14.8332 7.82018C14.7945 7.82018 14.7632 7.78884 14.7632 7.75018C14.7632 7.71152 14.7945 7.68018 14.8332 7.68018C14.8718 7.68018 14.9032 7.71152 14.9032 7.75018ZM16.7882 7.75018C16.7882 7.78884 16.7569 7.82018 16.7182 7.82018C16.6795 7.82018 16.6482 7.78884 16.6482 7.75018C16.6482 7.71152 16.6795 7.68018 16.7182 7.68018C16.7569 7.68018 16.7882 7.71152 16.7882 7.75018Z" fill="white"/>
<path d="M15.74 8.0055L15.52 8.7155C15.48 8.8655 15.59 9.0155 15.74 9.0155H16.07C16.22 9.0155 16.33 8.8655 16.29 8.7255L16.07 8.0155C16.01 7.8455 15.79 7.8455 15.74 8.0055Z" fill="#ED9200"/>
<path d="M15.905 9.35078C15.675 9.35078 15.465 9.30078 15.285 9.20078C15.225 9.17078 15.155 9.24078 15.195 9.30078C15.355 9.53078 15.615 9.68078 15.905 9.68078C16.205 9.68078 16.465 9.53078 16.615 9.30078C16.655 9.24078 16.585 9.17078 16.525 9.20078C16.345 9.29078 16.135 9.35078 15.905 9.35078Z" fill="#990839"/>
</svg>

<svg xmlns="http://www.w3.org/2000/svg" width="32" height="32" fill="none"><path fill="#75E0FC" d="M21.44 4.93a3.424 3.424 0 0 0-2.983.96l-2.663 2.656L13.17 5.92a3.428 3.428 0 0 0-4.85 0 3.428 3.428 0 0 0 0 4.85l3.37 3.37.033.033-.3.3a2.198 2.198 0 0 0 0 3.1 2.198 2.198 0 0 0 3.1 0l1.388-1.388 1.375 1.375c.87.87 2.292.87 3.162 0 .87-.87.87-2.292 0-3.162l-.404-.404 3.255-3.254a3.42 3.42 0 0 0-.133-4.984l-.537-.275a.195.195 0 0 0-.16 0l-.95.503c-.114.057-.252-.046-.229-.183l.152-.87Z"/><path fill="#fff" d="M11.159 6.25a.175.175 0 1 0-.348.043l.19 1.524-1.1-.998a.175.175 0 1 0-.235.259l4.216 3.828a3.62 3.62 0 0 1 .421-.072.173.173 0 0 0-.04-.055l-2.864-2.6-.24-1.93Zm6.638 4.643a3.477 3.477 0 0 0-.365-.063c0-.048.019-.097.058-.132l2.731-2.447.262-1.947a.175.175 0 1 1 .346.047l-.207 1.54 1.198-1.073a.175.175 0 1 1 .234.26l-4.257 3.815Zm1.944.759-.36-.149 2.085-1.832a.712.712 0 0 0 .092.125c.046.05.083.104.111.162l-1.442 1.267 1.019.082a.175.175 0 0 1-.028.349l-1.24-.1a.174.174 0 0 1-.09-.033l-.147.129Zm-7.13.12a40.45 40.45 0 0 0-.17.189l-.064.072-.53-.483h-.003l-1.25.1a.175.175 0 1 1-.028-.348l.925-.074-1.877-1.705a.175.175 0 0 1 .236-.26l2.76 2.508Z"/><path fill="#F59F00" d="M22.82 9.012a.332.332 0 1 1 .662.026l-.083 1.044c-.022.648-.07 2.375-.102 3.537a1.165 1.165 0 0 1-1.61 1.045l-2.903-1.199a.085.085 0 0 0-.117.079v.342c0 1.407 0 2.11.098 2.805.098.695.292 1.371.681 2.724l.56 1.944a1.5 1.5 0 0 1-.169 1.208l-3.138 5.04a.25.25 0 0 1-.44-.03l-.64-1.419a.299.299 0 0 1 .003-.25c.261-.557 1.335-2.852 1.89-4.198a.492.492 0 0 0 0-.375l-1.205-2.94c-.1-.245-.461-.188-.481.076l-.789 10.536a.3.3 0 0 1-.17.248l-1.32.635a.25.25 0 0 1-.36-.225l-.012-15.27c0-.134 0-.201-.035-.225a.08.08 0 0 0-.03-.013c-.042-.008-.09.04-.184.135 0 0-.69.67-1.657 1.16-.89.45-1.769.444-2.332.44h-.14c-.55 0-1.247-.196-1.247-.196s-.301.344-.794.186c-.151.183-.398.392-.66.208-.472-.332-.089-1.034.137-1.291.343-.409.974-.827 1.535-.827.206-.01.407-.012.61-.013.566-.003 1.135-.006 1.8-.218.954-.306 1.676-1.12 2.263-1.78.38-.428.704-.792.996-.912.51-.21 1.036-.25 1.586-.25h1.82c.62 0 1.132.074 1.824.41l2.71 1.116c.05-.25.248-1.314.355-1.884a.746.746 0 0 0-.174-.645.663.663 0 0 1-.18-.446v-.794c0-.234.19-.424.425-.421a.445.445 0 0 1 .434.448c-.002.287.002.539.005.774a.289.289 0 0 0 .577-.005v-.34Z"/><path fill="#635994" d="m15.113 27.995-.076 1.012a.3.3 0 0 1-.17.248l-1.32.635a.25.25 0 0 1-.36-.226v-1.481l1.926-.188Zm2.203-1.379-.617.991a.25.25 0 0 1-.44-.03l-.64-1.419a.299.299 0 0 1 .003-.25c.093-.199.29-.62.53-1.139l1.164 1.847Z"/><path fill="#FCB100" d="M16.905 10v2.987l-2 .013v-3h2Z"/><path fill="#F1A11E" d="m14.386 4.62-.278.277c-.101.1-.222.18-.355.233a1.048 1.048 0 0 0-.605 1.315l.148.43c.028.083.045.17.048.258.02.487.42.871.907.871h3.383c.449 0 .813-.364.813-.813 0-.126.029-.25.085-.362l.099-.2a1.106 1.106 0 0 0-.635-1.538 1.105 1.105 0 0 1-.458-.3l-.13-.14a1.299 1.299 0 0 0-1.23-.393c-.18.039-.366.039-.546 0l-.01-.002a1.349 1.349 0 0 0-1.236.364Z"/><path fill="#FCB100" d="M14.437 8a.7.7 0 1 1-1.4 0 .7.7 0 0 1 1.4 0Zm4.29 0a.7.7 0 1 1-1.4 0 .7.7 0 0 1 1.4 0Z"/><path fill="#FCB100" d="M14.437 8a.7.7 0 1 1-1.4 0 .7.7 0 0 1 1.4 0Zm4.29 0a.7.7 0 1 1-1.4 0 .7.7 0 0 1 1.4 0Z"/><path fill="#FFC83D" d="M18.176 7.005a1.389 1.389 0 0 1-.361-.836l-.02-.261a.138.138 0 0 0-.1-.123 6.918 6.918 0 0 0-3.269-.125l-.244.05a.159.159 0 0 0-.127.144l-.014.194a1.59 1.59 0 0 1-.387.928l-.02.345.139 2.03c.114.83.844 1.448 1.709 1.448h.834c.865 0 1.595-.617 1.71-1.448l.15-2.346Z"/><path fill="#75443E" d="M22.9 5.333h-.692v4.03c0 .168.159.305.351.305.193 0 .352-.137.352-.304v-4.03h-.012Z"/><path fill="#FCD53F" d="m22.708 2.369.47.96c.022.047.068.081.125.092l1.064.15a.166.166 0 0 1 .091.285l-.766.744a.17.17 0 0 0-.046.149L23.83 5.8a.162.162 0 0 1-.24.172l-.961-.492a.195.195 0 0 0-.16 0l-.95.503c-.114.057-.252-.045-.229-.183l.183-1.052a.17.17 0 0 0-.045-.15l-.767-.743c-.103-.091-.046-.263.091-.286l1.053-.149a.177.177 0 0 0 .126-.091l.47-.961a.174.174 0 0 1 .308 0Z"/><path fill="#46A4FB" d="m13.181 22.008-.005-5.998h5.522c.015.243.036.462.067.681.098.695.292 1.371.681 2.724l.333 1.157-2.364.527-1.108-2.705c-.1-.244-.461-.187-.481.077l-.265 3.537h-2.38ZM16.904 10.8c.534.004.994.07 1.57.32a.995.995 0 0 1 .175.555l.02 1.855a.08.08 0 0 0-.002.014v.342c0 .906 0 1.52.026 2.029l.001.085h-5.518l-.001-1.605c0-.109 0-.173-.019-.207v-2.453c0-.263.102-.502.268-.68.004-.003.009-.005.013-.006.473-.195.96-.243 1.467-.249l.647 1.227a.4.4 0 0 0 .708 0l.645-1.227Z"/><path fill="#C3EF3C" d="m13.177 16.408-.001-.834h5.504c.009.313.024.58.05.834h-5.553Z"/><path fill="#D37034" d="m17.586 6.737-.002-.002-.002-.001-.005-.004a.614.614 0 0 0-.066-.047 1.252 1.252 0 0 0-.813-.182.25.25 0 0 0 .059.497.752.752 0 0 1 .51.124l.003.002a.25.25 0 0 0 .316-.387ZM14.57 7.1l.004-.004-.002.002-.001.001-.001.001Zm-.002.002.01-.009a.379.379 0 0 1 .079-.044.844.844 0 0 1 .434-.046.25.25 0 0 0 .056-.497 1.338 1.338 0 0 0-.69.085.878.878 0 0 0-.247.162l-.005.006-.002.002-.002.001v.001a.25.25 0 0 0 .367.339Z"/><path fill="#fff" d="M14.293 7.86a.601.601 0 0 1 1.17.02c.01.06-.04.12-.1.12h-.95c-.07 0-.13-.07-.12-.14Zm3.205 0a.6.6 0 0 0-.58-.45c-.29 0-.53.2-.58.47-.01.06.04.12.1.12h.95c.07 0 .13-.07.11-.14Z"/><path fill="#7D4533" d="M14.583 7.9c0-.21.17-.38.38-.38s.38.17.37.38c0 .03 0 .07-.01.1h-.73c0-.015-.002-.032-.005-.05-.002-.017-.005-.035-.005-.05Zm2.625 0a.38.38 0 0 0-.38-.38c-.21 0-.38.17-.37.38 0 .03 0 .07.01.1h.73c0-.015.003-.032.005-.05a.376.376 0 0 0 .005-.05Z"/><path fill="#000" d="M14.963 7.68c.12 0 .22.1.22.22 0 .04-.01.07-.04.1h-.38a.296.296 0 0 1-.02-.1c0-.12.1-.22.22-.22Zm1.875 0c-.12 0-.22.1-.22.22 0 .04.01.07.04.1h.38c.01-.03.02-.06.02-.1 0-.12-.1-.22-.22-.22Z"/><path fill="#fff" d="M14.903 7.75a.07.07 0 1 1-.14 0 .07.07 0 0 1 .14 0Zm1.885 0a.07.07 0 1 1-.14 0 .07.07 0 0 1 .14 0Z"/><path fill="#ED9200" d="m15.74 8.005-.22.71c-.04.15.07.3.22.3h.33c.15 0 .26-.15.22-.29l-.22-.71c-.06-.17-.28-.17-.33-.01Z"/><path fill="#990839" d="M15.905 9.35c-.23 0-.44-.05-.62-.15-.06-.03-.13.04-.09.1.16.23.42.38.71.38.3 0 .56-.15.71-.38.04-.06-.03-.13-.09-.1-.18.09-.39.15-.62.15Z"/></svg>
